static/assets/template/assets/img/icons/essential/detailed/Sale.svg

<svg height="133" viewBox="0 0 148 133" width="148" xmlns="http://www.w3.org/2000/svg"><g fill="none" fill-rule="evenodd" transform="translate(1 1)"><path d="m130.3 47-5.6-20.2-1.2 1.9-.2-1.9-1.9 1.9.3-1.9v-7.1c-1.2-5.2-5.2-9.6-10.7-11.1l-27-7.5c-4.4-1.2-9.1-.5-12.9 1.9l-66.2 41.9c-4.2 2.7-5.5 8.3-2.8 12.6l29 45.8c2.2 3.4 6.3 4.9 10 3.9l13.5 12.6c2.6 2.5 6.3 3 9.4 1.9l-.4.7 10.3 6.5c4.2 2.7 9.9 1.4 12.6-2.8l42-66.1c2.3-3.9 3-8.6 1.8-13z" fill-rule="nonzero"/><path d="m128.4 59.9-42 66.1c-2.7 4.3-8.3 5.5-12.6 2.8l-10.3-6.5.4-.7c-3.2 1.2-6.8.6-9.5-1.9l-13.5-12.6c.9-.2 1.7-.6 2.5-1.1l66.2-41.9c3.8-2.4 6.5-6.4 7.3-10.9l4.3-24.7 1.9-1.9.2 1.9 1.2-1.9 5.6 20.2c1.4 4.6.7 9.3-1.7 13.1z" fill-rule="nonzero"/><path d="m31.7 104.2c.1.1.3.3.4.4.3.3.7.7 1 .9.2.1.4.3.6.4.1.1.2.2.4.2.3.2.5.3.8.4.3.2.7.3 1.1.4 1.3.4 2.6.5 3.9.4.2 0 .4 0 .6-.1.2 0 .4-.1.6-.1.9-.2 1.7-.6 2.5-1.1l66.2-41.9c3.8-2.4 6.5-6.4 7.3-10.9l4.3-24.7.3-1.9" stroke-linecap="round" stroke-linejoin="round" stroke-width="3"/><path d="m122.8 28.5-5.5 25.2c-.9 4.3-3.7 8.1-7.5 10.5l-66.2 41.9c-4.2 2.7-9.7 1.7-12.2-2.2l-26.6-42.1c-2.5-3.9-1-9.3 3.2-11.9l66.2-41.9c3.9-2.4 8.5-3.3 12.7-2.3l26.1 6.1c5.3 1.2 9 5.2 10 10.1" fill-rule="nonzero"/><g stroke-linecap="round" stroke-linejoin="round" stroke-width="3"><path d="m74.3 1.4c3.1-1.1 6.5-1.2 9.7-.3l27 7.5c5.5 1.5 9.4 5.9 10.7 11.1"/><path d="m67.1 5.5.6-.4"/><path d="m121.7 26.7-4.6 26.6c-.8 4.5-3.4 8.4-7.3 10.9l-66.2 41.9c-4.2 2.7-9.9 1.4-12.6-2.8l-29-45.8c-2.7-4.2-1.4-9.9 2.8-12.6l56.7-35.9"/><path d="m123.3 26.7 1.9 23.1c.4 4.5-1.2 9-4.3 12.4l-53.5 57.2c-3.4 3.7-9.2 3.9-12.9.4l-7.3-6.8"/><path d="m124.7 26.7 5.6 20.2c1.2 4.4.5 9.1-1.9 12.9l-42 66.1c-2.7 4.2-8.3 5.5-12.6 2.8l-3.7-2.4"/><path d="m29.4 100.7-1.4-.9c-2.8-1.8-4.3-4.9-4.2-8"/><path d="m113.5 26.7c-.6 1-1.4 1.9-2.4 2.5-3.4 2.2-8 1.1-10.1-2.3-2.2-3.4-1.1-8 2.3-10.1 3.4-2.2 8-1.1 10.1 2.3.1.2.2.3.3.5" fill-rule="nonzero"/><g fill-rule="nonzero" transform="translate(23 23)"><path d="m.9 47.4c-1.9-2.9-.8-7.5 3.5-10.2 2-1.2 3.7-1.7 5.2-1.8 1.6-.1 2.9 1.4 2.6 2.9v.1c-.2 1.1-1.1 1.9-2.2 2-.7 0-1.5.2-2.2.7-1.2.8-1.5 2.1-1 2.9 1.6 2.5 9.5-4.3 13.6 2.3 2.1 3.3 1.1 7.9-3.6 10.9-2.5 1.6-4.9 2-6.7 1.9-1.5 0-2.6-1.4-2.3-2.9v-.1c.2-1.2 1.3-2 2.5-2 1 0 2.2-.2 3.3-.8 1.5-.9 1.8-2.5 1.1-3.5-1.8-2.7-9.7 4.2-13.8-2.4z"/><path d="m28.9 43 .7 2.8c.3 1.3-.2 2.6-1.3 3.3-1.8 1.1-4.1.1-4.5-1.9l-3.2-15.7c-.4-2 .5-4 2.1-5 1.7-1.1 3.9-1 5.5.2l12.8 9.7c1.7 1.3 1.6 3.8-.2 4.9-1.1.7-2.5.6-3.5-.2l-2.2-1.8zm-3-11.4 1.7 6.6 3.5-2.2z"/><path d="m46.6 37.5-10.5-16.6c-.7-1.2-.4-2.8.8-3.5l.8-.5c1.2-.7 2.8-.4 3.5.8l7.6 12.1 6.2-3.9c1.2-.7 2.8-.4 3.5.8l.2.3c.7 1.2.4 2.8-.8 3.5z"/><path d="m76 15.8c.7 1.2.4 2.8-.8 3.5l-12.6 8-11.9-18.8 12.3-7.8c1.2-.7 2.8-.4 3.5.8s.4 2.8-.8 3.5l-7.2 4.6 1.9 2.9 5.2-3.3c1.1-.7 2.6-.4 3.3.7s.4 2.6-.7 3.3l-5.2 3.3 2 3.2 7.5-4.7c1.2-.7 2.8-.3 3.5.8z"/></g><path d="m141.1 26.7h-33.1c-2 0-3.5-1.6-3.5-3.5 0-2 1.6-3.5 3.5-3.5h33.2c2 0 3.5 1.6 3.5 3.5-.1 2-1.6 3.5-3.6 3.5z" fill-rule="nonzero"/></g></g></svg>

<?xml version="1.0" encoding="UTF-8"?>
<svg width="148px" height="133px" viewBox="0 0 148 133" version="1.1" xmlns="http://www.w3.org/2000/svg" xmlns:xlink="http://www.w3.org/1999/xlink">
    <!-- Generator: Sketch 51.2 (57519) - http://www.bohemiancoding.com/sketch -->
    <title>Sale</title>
    <desc>Created with Sketch.</desc>
    <defs></defs>
    <g id="Page-1" stroke="none" stroke-width="1" fill="none" fill-rule="evenodd">
        <g id="Sale" transform="translate(1.000000, 1.000000)">
            <path d="M130.3,47 L124.7,26.8 L123.5,28.7 L123.3,26.8 L121.4,28.7 L121.7,26.8 L121.7,19.7 C120.5,14.5 116.5,10.1 111,8.6 L84,1.1 C79.6,-0.1 74.9,0.6 71.1,3 L4.9,44.9 C0.7,47.6 -0.6,53.2 2.1,57.5 L31.1,103.3 C33.3,106.7 37.4,108.2 41.1,107.2 L54.6,119.8 C57.2,122.3 60.9,122.8 64,121.7 L63.6,122.4 L73.9,128.9 C78.1,131.6 83.8,130.3 86.5,126.1 L128.5,60 C130.8,56.1 131.5,51.4 130.3,47 Z" id="Shape" class="fill-neutral" fill-rule="nonzero"></path>
            <path d="M128.4,59.9 L86.4,126 C83.7,130.3 78.1,131.5 73.8,128.8 L63.5,122.3 L63.9,121.6 C60.7,122.8 57.1,122.2 54.4,119.7 L40.9,107.1 C41.8,106.9 42.6,106.5 43.4,106 L109.6,64.1 C113.4,61.7 116.1,57.7 116.9,53.2 L121.2,28.5 L123.1,26.6 L123.3,28.5 L124.5,26.6 L130.1,46.8 C131.5,51.4 130.8,56.1 128.4,59.9 Z" id="Shape" class="fill-primary-300" fill-rule="nonzero"></path>
            <path d="M31.7,104.2 C31.8,104.3 32,104.5 32.1,104.6 C32.4,104.9 32.8,105.3 33.1,105.5 C33.3,105.6 33.5,105.8 33.7,105.9 C33.8,106 33.9,106.1 34.1,106.1 C34.4,106.3 34.6,106.4 34.9,106.5 C35.2,106.7 35.6,106.8 36,106.9 C37.3,107.3 38.6,107.4 39.9,107.3 C40.1,107.3 40.3,107.3 40.5,107.2 C40.7,107.2 40.9,107.1 41.1,107.1 C42,106.9 42.8,106.5 43.6,106 L109.8,64.1 C113.6,61.7 116.3,57.7 117.1,53.2 L121.4,28.5 L121.7,26.6" id="Shape" class="stroke-primary" stroke-width="3" stroke-linecap="round" stroke-linejoin="round"></path>
            <path d="M122.8,28.5 L117.3,53.7 C116.4,58 113.6,61.8 109.8,64.2 L43.6,106.1 C39.4,108.8 33.9,107.8 31.4,103.9 L4.8,61.8 C2.3,57.9 3.8,52.5 8,49.9 L74.2,8 C78.1,5.6 82.7,4.7 86.9,5.7 L113,11.8 C118.3,13 122,17 123,21.9" id="Shape" class="fill-primary-100" fill-rule="nonzero"></path>
            <path d="M74.3,1.4 C77.4,0.3 80.8,0.2 84,1.1 L111,8.6 C116.5,10.1 120.4,14.5 121.7,19.7" id="Shape" class="stroke-primary" stroke-width="3" stroke-linecap="round" stroke-linejoin="round"></path>
            <path d="M67.1,5.5 L67.7,5.1" id="Shape" class="stroke-primary" stroke-width="3" stroke-linecap="round" stroke-linejoin="round"></path>
            <path d="M121.7,26.7 L117.1,53.3 C116.3,57.8 113.7,61.7 109.8,64.2 L43.6,106.1 C39.4,108.8 33.7,107.5 31,103.3 L2,57.5 C-0.7,53.3 0.6,47.6 4.8,44.9 L61.5,9" id="Shape" class="stroke-primary" stroke-width="3" stroke-linecap="round" stroke-linejoin="round"></path>
            <path d="M123.3,26.7 L125.2,49.8 C125.6,54.3 124,58.8 120.9,62.2 L67.4,119.4 C64,123.1 58.2,123.3 54.5,119.8 L47.2,113" id="Shape" class="stroke-primary" stroke-width="3" stroke-linecap="round" stroke-linejoin="round"></path>
            <path d="M124.7,26.7 L130.3,46.9 C131.5,51.3 130.8,56 128.4,59.8 L86.4,125.9 C83.7,130.1 78.1,131.4 73.8,128.7 L70.1,126.3" id="Shape" class="stroke-primary" stroke-width="3" stroke-linecap="round" stroke-linejoin="round"></path>
            <path d="M29.4,100.7 L28,99.8 C25.2,98 23.7,94.9 23.8,91.8" id="Shape" class="stroke-primary" stroke-width="3" stroke-linecap="round" stroke-linejoin="round"></path>
            <path d="M113.5,26.7 C112.9,27.7 112.1,28.6 111.1,29.2 C107.7,31.4 103.1,30.3 101,26.9 C98.8,23.5 99.9,18.9 103.3,16.8 C106.7,14.6 111.3,15.7 113.4,19.1 C113.5,19.3 113.6,19.4 113.7,19.6" id="Shape" stroke-width="3" class="stroke-primary fill-primary-300" fill-rule="nonzero" stroke-linecap="round" stroke-linejoin="round"></path>
            <g id="Group" transform="translate(23.000000, 23.000000)" class="fill-neutral" fill-rule="nonzero" class="stroke-primary" stroke-linecap="round" stroke-linejoin="round" stroke-width="3">
                <path d="M0.9,47.4 C-1,44.5 0.1,39.9 4.4,37.2 C6.4,36 8.1,35.5 9.6,35.4 C11.2,35.3 12.5,36.8 12.2,38.3 L12.2,38.4 C12,39.5 11.1,40.3 10,40.4 C9.3,40.4 8.5,40.6 7.8,41.1 C6.6,41.9 6.3,43.2 6.8,44 C8.4,46.5 16.3,39.7 20.4,46.3 C22.5,49.6 21.5,54.2 16.8,57.2 C14.3,58.8 11.9,59.2 10.1,59.1 C8.6,59.1 7.5,57.7 7.8,56.2 L7.8,56.1 C8,54.9 9.1,54.1 10.3,54.1 C11.3,54.1 12.5,53.9 13.6,53.3 C15.1,52.4 15.4,50.8 14.7,49.8 C12.9,47.1 5,54 0.9,47.4 Z" id="Shape"></path>
                <path d="M28.9,43 L29.6,45.8 C29.9,47.1 29.4,48.4 28.3,49.1 C26.5,50.2 24.2,49.2 23.8,47.2 L20.6,31.5 C20.2,29.5 21.1,27.5 22.7,26.5 C24.4,25.4 26.6,25.5 28.2,26.7 L41,36.4 C42.7,37.7 42.6,40.2 40.8,41.3 C39.7,42 38.3,41.9 37.3,41.1 L35.1,39.3 L28.9,43 Z M25.9,31.6 L27.6,38.2 L31.1,36 L25.9,31.6 Z" id="Shape"></path>
                <path d="M46.6,37.5 L36.1,20.9 C35.4,19.7 35.7,18.1 36.9,17.4 L37.7,16.9 C38.9,16.2 40.5,16.5 41.2,17.7 L48.8,29.8 L55,25.9 C56.2,25.2 57.8,25.5 58.5,26.7 L58.7,27 C59.4,28.2 59.1,29.8 57.9,30.5 L46.6,37.5 Z" id="Shape"></path>
                <path d="M76,15.8 C76.7,17 76.4,18.6 75.2,19.3 L62.6,27.3 L50.7,8.5 L63,0.7 C64.2,-6.10622664e-16 65.8,0.3 66.5,1.5 C67.2,2.7 66.9,4.3 65.7,5 L58.5,9.6 L60.4,12.5 L65.6,9.2 C66.7,8.5 68.2,8.8 68.9,9.9 C69.6,11 69.3,12.5 68.2,13.2 L63,16.5 L65,19.7 L72.5,15 C73.7,14.3 75.3,14.7 76,15.8 Z" id="Shape"></path>
            </g>
            <path d="M141.1,26.7 L108,26.7 C106,26.7 104.5,25.1 104.5,23.2 C104.5,21.2 106.1,19.7 108,19.7 L141.2,19.7 C143.2,19.7 144.7,21.3 144.7,23.2 C144.6,25.2 143.1,26.7 141.1,26.7 Z" id="Shape" stroke-width="3" class="stroke-primary fill-neutral" fill-rule="nonzero" stroke-linecap="round" stroke-linejoin="round"></path>
        </g>
    </g>
</svg>
